X:0384
T:Sweet Willy O.
M:6/8
L:1/8
Q:3/8=108
I: :: ::
Z:Jack Campin * www.campin.me.uk * 2009
K:D
(3A/B/c/|ded FAd|fga agf|gag Bdg|bc'd' d'c'b|
         aba afd|gBB B2c|ded fga|bee   e2  :|
A|ded faf|ded    faf |\
  ded faf|d=c'c' c'ba|\
  bge afd|ded    d2 :|

